X: 922
T: The Wright's Rant
R: reel
B: Robert Bremner "A Collection of Scots Reels or Country Dances" 1757 p.92 #2
S: http://imslp.org/wiki/A_Collection_of_Scots_Reels_or_Country_Dances_(Bremner,_Robert)
Z: 2013 John Chambers <jc:trillian.mit.edu>
M: 6/8
L: 1/8
K: Amix
% - - - - - - - - - - - - - - - - - - - - - - - - -
V: 1
|:\
cAA eAA | cAA Te2c | dBB gBB | aBB Tf2e |\
cAA eAA | cAA Te2c | def efg | (f/^g/a)c TB2A :|
|:\
cAA (f/g/a/g/f/e/) | cAA Te2c | dBB (f/g/a/g/f/e/) | aBB Tf2e |\
cAA (f/g/a/g/f/e/) | cAA Te2c | def efg | (f/^g/a)c TB2A :|
% - - - - - - - - - - - - - - - - - - - - - - - - -
V: 2 clef=bass middle=d
|:\
a3 a3 | a3 a3 | b3 b3 | b3 b3 |\
a3 a3 | a3 a3 | d3 e3 | A3 A3 :|
|:\
a3 a3 | a3 a3 | b3 b3 | b3 b3 |\
a3 a3 | a3 a3 | d3 e3 | A3 A3 :|
% - - - - - - - - - - - - - - - - - - - - - - - - -

%%sep 1 1 500
%%sep 1 1 500
